X:112
T:Sugarfoot Rag
C:Traditional - Arr. Sam Bush
M:4/4
L:1/8
Q:1/8=450
K:G
ef|gfga gedg|=fefg fdc2|^ABde A=AGE|DEGA G2ef|
gfga gedg|=fefg fdc2|cd2e dBAG|DEGA G2G2|
[g2B2][g2B2] AGDG|DEGB AGEG|^ABd2 A=AGE|DEGA G2G2|
[g2B2][g2B2] AGDG|DEGB AGEG|^ABd2 A=AGE|DEGA G4|
